Origami/64x64/apps/applications-haskell.svg

<svg width="64" height="64" version="1" xmlns="http://www.w3.org/2000/svg">
 <rect x="6" y="7" width="52" height="52" rx="2.8" ry="2.8" style="opacity:.2"/>
 <rect x="6" y="6" width="52" height="52" rx="2.8" ry="2.8" style="fill:#cccccc"/>
 <path d="m13 15 10 18-10 18h6l10-18-10-18zm10 0 10 18-10 18h6l7-12.602 7 12.602h6l-20-36zm16.668 12 2.222 4h9.11v-4zm4.442 8 2.222 4h4.668v-4z" style="opacity:.1"/>
 <path d="m13 14 10 18-10 18h6l10-18-10-18zm26.668 12 2.222 4h9.11v-4zm4.442 8 2.222 4h4.668v-4z" style="fill:#8b82a4"/>
 <path d="m23 14 10 18-10 18h6l7-12.602 7 12.602h6l-20-36z" style="fill:#5f5088"/>
 <path d="M 8.8008 6 C 7.2496 6 6 7.2496 6 8.8008 L 6 9.8008 C 6 8.2496 7.2496 7 8.8008 7 L 55.199 7 C 56.75 7 58 8.2496 58 9.8008 L 58 8.8008 C 58 7.2496 56.75 6 55.199 6 L 8.8008 6 z" style="fill:#ffffff;opacity:.2"/>
</svg>

<svg xmlns="http://www.w3.org/2000/svg" width="64" height="64" version="1">
 <rect style="opacity:0.2" width="52" height="52" x="6" y="7" rx="2.8" ry="2.8"/>
 <rect style="fill:#cccccc" width="52" height="52" x="6" y="6" rx="2.8" ry="2.8"/>
 <path style="opacity:0.1" d="M 13,15 23,33 13,51 H 19 L 29,33 19,15 Z M 23,15 33,33 23,51 H 29 L 36,38.398 43,51 H 49 L 29,15 Z M 39.668,27 41.89,31 H 51 V 27 Z M 44.11,35 46.332,39 H 51 V 35 Z"/>
 <path style="fill:#8b82a4" d="M 13,14 23,32 13,50 H 19 L 29,32 19,14 Z M 39.668,26 41.89,30 H 51 V 26 Z M 44.11,34 46.332,38 H 51 V 34 Z"/>
 <path style="fill:#5f5088" d="M 23,14 33,32 23,50 H 29 L 36,37.398 43,50 H 49 L 29,14 Z"/>
 <path style="fill:#ffffff;opacity:0.2" d="M 8.8008 6 C 7.2496 6 6 7.2496 6 8.8008 L 6 9.8008 C 6 8.2496 7.2496 7 8.8008 7 L 55.199 7 C 56.75 7 58 8.2496 58 9.8008 L 58 8.8008 C 58 7.2496 56.75 6 55.199 6 L 8.8008 6 z"/>
</svg>
